X: 8
T: Missa Sine nomine i / Credo
N: Derived from Tin1002c-Missa_Sine_nomine_I-Credo.krn
C: Johannes Tinctoris
%%abc-version 2.0
%%abcx-abcm2ps-target-version 5.9.1 (29 Sep 2008)
%%abc-creator hum2abc beta
%%abcx-conversion-date 2019/02/17 07:34:55
%%abc-edited-by Jesse Rodin
%%abc-edited-by Chris Gage 01-13-2015
%%abcx-initial-encoding-date 2015/01/18/
%%humdrum-veritas 336471030
%%humdrum-veritas-data 3424661219
%%linebreak <none>
%%barnumbers 0
L: 1/4
M: 3/1
Q: 1/2=120
V: 1 clef=treble-8
V: 2 clef=bass
V: 3 clef=bass
K: Bb
[V:1] c8B4 | 
[V:2] C,6E,2D,4 | 
[V:3] C,3B,,A,,F,,C,2G,,4 | 
[V:1] c6d2e3d/c/ | 
[V:2] C,2E,4F,2G,4- | 
[V:3] C,,3C,,E,,2D,,2C,,4- | 
[V:1] e2d3cB2A4 | 
[V:2] G,8^F,4 | 
[V:3] C,,2G,,3A,,B,,C,D,4 | 
[V:1] G4z2G3AB2 | 
[V:2] G,8z4 | 
[V:3] z2G,,3A,,B,,2C,2G,,2 | 
[V:1] c8A2B2 | 
[V:2] C,3D,E,2F,4D,2 | 
[V:3] A,,3B,,C,2F,,4G,,2 | 
[V:1] c2d3cc4=B2 | 
[V:2] E,2F,2G,2C,2D,4 | 
[V:3] C,2B,,2G,,2A,,2G,,4 | 
[V:1] c12 | 
[V:2] C,12- | 
[V:3] z2C,3D,E,2C,2_A,,2 | 
[V:1] z2G3AB2G2E2 | 
[V:2] C,4G,3A,B,2G,2 | 
[V:3] F,,2C,,2E,,8 | 
[V:1] z2e3d/e/f/e/d/c/d2Bc- | 
[V:2] E,3D,C,2C,2B,,D,2E, | 
[V:3] C,,6C,,2G,,B,,2_A,, | 
[V:1] c/B/A/G/BcF2B3A/G/A2 | 
[V:2] F,3/E,/D,C,D,2B,,2C,4 | 
[V:3] F,,2G,,A,,B,,2G,,2F,,4 | 
[V:1] B8z4 | 
[V:2] z2B,,2E,3F,G,2E,F,- | 
[V:3] B,,,2E,,3F,,G,,2E,,G,,2A,, | 
[V:1] z12 | 
[V:2] F,/E,/D,/C,/E,F,B,,2E,3D,/C,/D,2 | 
[V:3] B,,3/A,,/G,,F,,G,,2E,,2F,,4 | 
[V:1] G6c3B/A/Bc/d/ | 
[V:2] E,4C,4z2F,2 | 
[V:3] E,,4z2E,3D,/C,/D,2 | 
[V:1] e2d3cc4=B2 | 
[V:2] G,8F,3E,/F,/ | 
[V:3] C,2B,,2C,2E,2D,4 | 
[V:1] c4z4z4 | 
[V:2] G,3E,2F,2D,2E,D,2 | 
[V:3] C,4_A,,2B,,2G,,C,2B,, | 
[V:1] z12 | 
[V:2] zC,E,2F,/G,/_A,2F,2=E,/D,/=E,2 | 
[V:3] C,2C,2F,,2_A,,2G,,4 | 
[V:1] c6A4F2 | 
[V:2] F,6C,2F,4 | 
[V:3] F,,8D,,4 | 
[V:1] G8E4 | 
[V:2] E,4z2C,3D,E,2 | 
[V:3] C,,8C,4 | 
[V:1] D8C3D | 
[V:2] F,8G,4 | 
[V:3] B,,6C,D,E,4 | 
[V:1] E4z2G3AGF/E/ | 
[V:2] z2G,4E,3F,E,D,/C,/ | 
[V:3] C,12 | 
[V:1] F2E2C4D4 | 
[V:2] D,2E,3D,C,4=B,,2 | 
[V:3] B,,2C,3B,,_A,,2G,,4 | 
[V:1] C8z4 | 
[V:2] C,6A,,2G,,4 | 
[V:3] z2C,,4F,,4=E,,2 | 
[V:1] C6F4=E2 | 
[V:2] F,,2G,,2A,,2F,,2B,,3A,,/B,,/ | 
[V:3] F,,2C,,2F,,2A,,2G,,4 | 
[V:1] F2C2F2A2G4 | 
[V:2] C,6F,4=E,2 | 
[V:3] F,,8C,4 | 
[V:1] F2c3d/e/f4=e2 | 
[V:2] F,2C,2F,2A,2G,4 | 
[V:3] F,,8C,,4 | 
[V:1] f2ed2cc3BAG/F/ | 
[V:2] F,2G,2F,F,2E,C,3D, | 
[V:3] F,,2C,F,,B,,A,,F,,C,,F,,2F,,2 | 
[V:1] G4[M:9/8](3:2:7C2D2E2F3G A B | 
[V:2] E,4z4C,3D, | 
[V:3] C,,4F,,2G,,2F,,2E,,D,, | 
[V:1] (3:2:10c2d2e2f3e d ce2d3c | 
[V:2] E,F,G,2F,2G,4F,2 | 
[V:3] C,,2zC,,D,,2C,,G,,3B,,2 | 
[V:1] (3:2:9c3B A GB2A2G2c4B2 | 
[V:2] E,2D,C,D,2C,C,2E,D,2 | 
[V:3] C,2z2G,,D,,F,,E,,C,,2G,,2 | 
[V:1] [M:3/1]c2d3cc4=B2 | 
[V:2] C,2B,,2C,4D,4 | 
[V:3] _A,,2G,,2A,,4G,,4 | 
[V:1] c12- | 
[V:2] C,4z2F,2F,F,2F, | 
[V:3] C,,2F,,4z2F,,2F,,F,,- | 
[V:1] c8z2c2 | 
[V:2] C,12- | 
[V:3] F,,F,,C,,2C,,2F,,3F,,2F,,- | 
[V:1] cc2cG4z4 | 
[V:2] C,8C,2F,2- | 
[V:3] F,,E,,F,,2E,,2C,,2F,,3B,,- | 
[V:1] z4z4G2c2- | 
[V:2] F,F,2F,2E,F,2E,2C,2 | 
[V:3] B,,A,,F,,2G,,2F,,D,,C,,C,2F,,- | 
[V:1] cc2c2Bc2z2f2 | 
[V:2] F,2E,C,D,2C,3=B,,/A,,/=B,,2 | 
[V:3] F,,/G,,/A,,/B,,/C,A,,G,,2C,,F,,3/E,,/D,,/C,,/D,,2 | 
[V:1] e2d2c2zBcAG2- | 
[V:2] C,2F,2E,2D,2C,2zB,, | 
[V:3] C,,2B,,,2zC,,G,,2A,,F,,C,D, | 
[V:1] GABcd3ef2d2 | 
[V:2] C,A,,G,,3A,,B,,C,D,3E, | 
[V:3] E,C,D,6B,,4 | 
[V:1] c2zBe2d/c/d2cBA | 
[V:2] F,2D,2C,2F,2G,3F, | 
[V:3] F,,2G,,2zC,A,,B,,2C,G,,A,,/B,,/ | 
[V:1] G2A2G2c4=B2 | 
[V:2] E,D,C,3B,,E,2D,4 | 
[V:3] C,2F,,2E,,2C,,2G,,4 | 
[V:1] c8z4 | 
[V:2] C,8z4 | 
[V:3] C,,4z4C,2D,2 | 
[V:1] G2A2B2c2A2G2 | 
[V:2] z2F,2z4D,2E,2- | 
[V:3] E,2z2D,2C,2z4 | 
[V:1] G3G2EDG2^F^F=E/^F/ | 
[V:2] E,C,2B,,C,2G,,2z4 | 
[V:3] z4z4A,,4 | 
[V:1] G4C6E2- | 
[V:2] z4G,8 | 
[V:3] G,,4z4z4 | 
[V:1] EFG2FF3/E/DC2F2 | 
[V:2] z4D,4E,2D,2 | 
[V:3] C,4z4z4 | 
[V:1] E2CG2_AGF/E/ F/E/D/C/D2 | 
[V:2] z12 | 
[V:3] C,8=B,,4 | 
[V:1] E6C2C4 | 
[V:2] C,8z4 | 
[V:3] z12 | 
[V:1] E8F4 | 
[V:2] G,8C,4 | 
[V:3] C,8A,,4 | 
[V:1] G8G4- | 
[V:2] D,6E,3C,D,2 | 
[V:3] G,,3A,,B,,2C,4B,,2 | 
[V:1] G2G4G2G4- | 
[V:2] E,2C,2B,,2E,2D,4 | 
[V:3] C,2E,3D,C,2=B,,3A,, | 
[V:1] G8z2B2- | 
[V:2] C,4z2E,6 | 
[V:3] C,4C,,4E,,3F,, | 
[V:1] B2A4G4c2 | 
[V:2] D,4C,4E,3F, | 
[V:3] G,,2D,,2G,,2C,,2C,2A,,2 | 
[V:1] B2d3cB2A4 | 
[V:2] G,A,B,3A,G,4^F,2 | 
[V:3] G,,8D,,4 | 
[V:1] G8z4 | 
[V:2] G,8z4 | 
[V:3] z2E,,4C,,2G,,2A,,2 | 
[V:1] G2A2G2c2B2c2 | 
[V:2] z4D,2E,2D,2G,2 | 
[V:3] G,,2C,2B,,2C,2D,2E,2 | 
[V:1] d2e2d2c2=B4 | 
[V:2] F,2G,A,B,A,3G,2F,E, | 
[V:3] D,2C,2B,,2F,,2G,,4 | 
[V:1] =B12- | 
[V:2] D,2G,2D,2G,3D,G,2 | 
[V:3] G,,12- | 
[V:1] B12 | 
[V:2] D,2G,3F,E,2D,4 | 
[V:3] G,,12 | 
[V:1] c2e3dc2B2c2 | 
[V:2] z2C,4E,3D,C,B,, | 
[V:3] C,,4C,4z2E,2 | 
[V:1] d2G4c4=B2 | 
[V:2] B,,2C,3B,,A,,2G,,4 | 
[V:3] D,2E,3D,C,2D,4 | 
[V:1] c12 ||  
[V:2] G,12 ||  
[V:3] C,12 ||  
[V:1]  [K:Bb] [K:clef=treble-8][M:2/1]=B8- | 
[V:2]  [K:Bb] [K:clef=bass][M:2/1]G,8 | 
[V:3]  [K:Bb] [K:clef=bass][M:2/1]z8 | 
[V:1] B8- | 
[V:2] G,6F,E, | 
[V:3] z8 | 
[V:1] B8 | 
[V:2] D,3E,D,4 | 
[V:3] z8 | 
[V:1] c8- | 
[V:2] C,3D,E,2F,2- | 
[V:3] z8 | 
[V:1] c8 | 
[V:2] F,2_A,3G,F,2 | 
[V:3] z8 | 
[V:1] c6BA | 
[V:2] E,2F,2C,4- | 
[V:3] z8 | 
[V:1] G3A/B/cBAG | 
[V:2] C,2E,6 | 
[V:3] z8 | 
[V:1] F4G4 | 
[V:2] D,4z2C,2 | 
[V:3] z8 | 
[V:1] C6E2- | 
[V:2] G,4E,4 | 
[V:3] z8 | 
[V:1] E4D4 | 
[V:2] C,4z2F,2 | 
[V:3] z8 | 
[V:1] z2C2G4 | 
[V:2] E,2G,4C,2- | 
[V:3] z8 | 
[V:1] E4C4 | 
[V:2] C,2_A,,3B,,C,2 | 
[V:3] z8 | 
[V:1] D2E2D4 | 
[V:2] G,,2C,4=B,,2 | 
[V:3] z8 | 
[V:1] C8 | 
[V:2] C,4z2E,2- | 
[V:3] C,8 | 
[V:1] z4e4- | 
[V:2] E,2F,2G,4- | 
[V:3] C,8- | 
[V:1] e4e4 | 
[V:2] G,2E,2G,3A, | 
[V:3] C,8 | 
[V:1] d8 | 
[V:2] B,4z2G,2- | 
[V:3] G,,8 | 
[V:1] z4d4- | 
[V:2] G,4G,4- | 
[V:3] G,,8- | 
[V:1] d4d4 | 
[V:2] G,2F,E,D,2F,2 | 
[V:3] G,,4G,,4 | 
[V:1] c8 | 
[V:2] C,4E,4 | 
[V:3] A,,4C,4 | 
[V:1] z4=B4- | 
[V:2] D,8- | 
[V:3] B,,2G,,6 | 
[V:1] B4=B4 | 
[V:2] D,8 | 
[V:3] G,,2F,,E,,D,,2G,,2 | 
[V:1] c8 | 
[V:2] C,4F,3E, | 
[V:3] C,,2F,,3E,,F,,2 | 
[V:1] d4e2f2- | 
[V:2] F,2G,4F,2 | 
[V:3] D,,2G,,2C,,2D,,2- | 
[V:1] f2e2d4- | 
[V:2] D,2C,2F,4- | 
[V:3] D,,2E,,2B,,,4 | 
[V:1] d2cBc4 | 
[V:2] F,2E,D,E,3D, | 
[V:3] z4z2C,,2 | 
[V:1] d2G3AB2- | 
[V:2] B,,4E,3F, | 
[V:3] G,,2E,,3F,,G,,2- | 
[V:1] Bcd3ef2 | 
[V:2] G,3A,B,3A, | 
[V:3] G,,A,,B,,6 | 
[V:1] e2defedc | 
[V:2] G,2F,E,D,2G,2- | 
[V:3] C,4B,,3A,, | 
[V:1] =B3A=B4 | 
[V:2] G,F,E,2D,4 | 
[V:3] G,,4G,,4 | 
[V:1] c8 | 
[V:2] C,8 | 
[V:3] C,,8 | 
[V:1] z8 | 
[V:2] z8 | 
[V:3] z8 | 
[V:1] c8 | 
[V:2] C,6B,,A,, | 
[V:3] C,,8 | 
[V:1] d8 | 
[V:2] B,,4B,,4 | 
[V:3] G,,4G,,4 | 
[V:1] c8 | 
[V:2] C,3D,E,2F,2- | 
[V:3] A,,3B,,C,2D,2- | 
[V:1] A8 | 
[V:2] F,E,D,C,D,4 | 
[V:3] D,C,D,E,F,E,D,C, | 
[V:1] B6G2- | 
[V:2] G,,4z4 | 
[V:3] D,4G,,4- | 
[V:1] G2G2B4 | 
[V:2] B,,4G,,4 | 
[V:3] G,,2G,,2D,4 | 
[V:1] c4z4 | 
[V:2] A,,4G,,4 | 
[V:3] z4B,,4 | 
[V:1] c8 | 
[V:2] A,,3B,,C,4 | 
[V:3] F,,4A,,4 | 
[V:1] d8 | 
[V:2] B,,4z4 | 
[V:3] G,,3A,,B,,2G,,2- | 
[V:1] z4B4 | 
[V:2] D,8 | 
[V:3] G,,2F,,2G,,4 | 
[V:1] G2c3BG2 | 
[V:2] E,8 | 
[V:3] C,4z4 | 
[V:1] A4D2d2- | 
[V:2] F,3G,A,4 | 
[V:3] D,8 | 
[V:1] dcd2e4 | 
[V:2] B,4G,4- | 
[V:3] B,,4C,4 | 
[V:1] d4c4- | 
[V:2] G,2F,2E,2C,2 | 
[V:3] G,,4_A,,4 | 
[V:1] c2=BA=B4 | 
[V:2] D,8 | 
[V:3] G,,3F,,G,,4 | 
[V:1] c8 | 
[V:2] C,8 | 
[V:3] z2C,,2F,,2G,,A,, | 
[V:1] z4B4 | 
[V:2] D,8 | 
[V:3] B,,4G,,4 | 
[V:1] G4c4 | 
[V:2] E,8 | 
[V:3] C,8 | 
[V:1] B2G2B3c | 
[V:2] D,8 | 
[V:3] G,,8 | 
[V:1] d4e4 | 
[V:2] G,,4G,4 | 
[V:3] B,,4C,4 | 
[V:1] d8 | 
[V:2] F,2F,3E,D,2 | 
[V:3] D,4B,,4 | 
[V:1] c4c4- | 
[V:2] E,2F,3E,D,C, | 
[V:3] C,3B,,C,2F,,2- | 
[V:1] c2BAB4 | 
[V:2] D,4D,4 | 
[V:3] F,,2G,,3F,,G,,2 | 
[V:1] c8 | 
[V:2] C,4C,4- | 
[V:3] E,,3D,,E,,2F,,2- | 
[V:1] z8 | 
[V:2] C,2=B,,A,,=B,,4 | 
[V:3] F,,E,,D,,C,,D,,4 | 
[V:1] z8 | 
[V:2] C,8 | 
[V:3] C,,4z2F,,2- | 
[V:1] c8 | 
[V:2] z8 | 
[V:3] F,,2E,,2F,,2C,,2- | 
[V:1] z8 | 
[V:2] C,8 | 
[V:3] C,,2F,,3G,,A,,2 | 
[V:1] z8 | 
[V:2] D,8 | 
[V:3] B,,2G,,4F,,2- | 
[V:1] z8 | 
[V:2] C,8 | 
[V:3] F,,2C,,4F,,2- | 
[V:1] z8 | 
[V:2] A,,8 | 
[V:3] F,,2C,3B,,A,,2 | 
[V:1] B8 | 
[V:2] z8 | 
[V:3] G,,6F,,E,, | 
[V:1] A4G4 | 
[V:2] z8 | 
[V:3] F,,4E,,2C,,2- | 
[V:1] z8 | 
[V:2] C,8 | 
[V:3] C,,2F,,3G,,A,,2 | 
[V:1] z8 | 
[V:2] D,8 | 
[V:3] G,,2B,,3A,,G,,2- | 
[V:1] d8 | 
[V:2] z8 | 
[V:3] G,,2F,,E,,D,,4 | 
[V:1] e8 | 
[V:2] z8 | 
[V:3] z2C,,2C,4 | 
[V:1] d8 | 
[V:2] z8 | 
[V:3] B,,2G,,4F,,2 | 
[V:1] B4c4 | 
[V:2] z8 | 
[V:3] G,,2B,,2A,,4 | 
[V:1] z8 | 
[V:2] D,8 | 
[V:3] z2G,,3A,,B,,2 | 
[V:1] z8 | 
[V:2] C,8- | 
[V:3] C,2F,,3G,,A,,2- | 
[V:1] z8 | 
[V:2] C,4=B,,4 | 
[V:3] A,,G,,F,,E,,D,,4 | 
[V:1] z8 ||  
[V:2] C,8 ||  
[V:3] C,,8 ||  
[V:1]  [K:Bb] [K:clef=treble-8][M:3/1]G4A2B2c2d2- | 
[V:2]  [K:Bb] [K:clef=bass][M:3/1]C,6D,2E,2F,2 | 
[V:3]  [K:Bb] [K:clef=bass][M:3/1]C,4A,,2G,,2C,2B,,2 | 
[V:1] dcBAB2c4=B2 | 
[V:2] G,3F,E,D,E,2D,4 | 
[V:3] G,,4z2C,2G,,4 | 
[V:1] c4z2G4A2 | 
[V:2] C,8z2C,2 | 
[V:3] C,,2F,,4C,3B,,A,,2 | 
[V:1] B2G2E2z2E4 | 
[V:2] D,2E,2C,2_A,,2z2A,,2- | 
[V:3] G,,2E,,4C,3B,,C,2 | 
[V:1] F2G2E2C4F2 | 
[V:2] A,,2B,,2C,2_A,,2F,,4 | 
[V:3] F,,2E,,2C,,2F,,4D,,2 | 
[V:1] D2G3FE2D4 | 
[V:2] B,,4G,,2C,4=B,,2 | 
[V:3] B,,,2E,,3D,,C,,2G,,4 | 
[V:1] C4z2c4d2 | 
[V:2] C,4E,4F,4 | 
[V:3] C,,4C,4z2B,,2 | 
[V:1] [M:6/2]e6d6 | 
[V:2] G,6F,2D,4 | 
[V:3] E,,2C,,2C,2D,3C,B,,2 | 
[V:1] c6=B4=B2 | 
[V:2] E,2F,3E,D,C,D,4 | 
[V:3] C,2F,,4G,,3F,,G,,2 | 
[V:1] c4z2G3AB2- | 
[V:2] z2C,4B,,2C,2D,2 | 
[V:3] A,,3G,,F,,2G,,2z2G,,2 | 
[V:1] BA/B/c4B3AG2 | 
[V:2] E,4F,2G,3F,E,2 | 
[V:3] E,,2C,,2z2E,,3F,,G,,A,, | 
[V:1] F2E4e3d/c/d2 | 
[V:2] D,2C,2G,4F,4 | 
[V:3] B,,2C,3B,,C,2_A,,B,,3 | 
[V:1] [M:3/1](3:2:4e6z6c4d2- | 
[V:2] E,2C,3D,E,2F,4 | 
[V:3] E,,2_A,,3B,,C,2(3:2:2F,,4B,,2- | 
[V:1] (3:2:7d2e4f3ed2c2d4 | 
[V:2] G,4F,6D,2 | 
[V:3] (3:2:2B,,2C,4F,,4z4 | 
[V:1] (3:2:8c3B A Gc4A2-A2=B4 | 
[V:2] E,2D,C,E,2F,2D,4 | 
[V:3] z4C,2F,,2z2G,,2 | 
[V:1] [M:4/2]c8 | 
[V:2] C,4z2C,2- :
[V:3] C,,2F,,3G,,A,,B,, :
[V:1] z2G2- [I:setbarnb 152]:
[V:2] C,D,E,2 | 
[V:3] C,3B,, | 
[V:1] GAB2- | 
[V:2] F,2G,2 :
[V:3] G,,2E,,2- :
[V:1] Bcd2e2dc [I:setbarnb 153]| 
[V:2] E,2F,2G,2F,E, | 
[V:3] E,,2D,,2C,,2z2 | 
[V:1] B2c3BAG | 
[V:2] D,2E,2F,3E, :
[V:3] G,,2C,2F,,4 :
[V:1] F2B2- [I:setbarnb 154]:
[V:2] D,C,B,,2 | 
[V:3] B,,2G,,2 | 
[V:1] B2A2 | 
[V:2] C,4 :
[V:3] F,,4 :
[V:1] B2G2F4 [I:setbarnb 155]| 
[V:2] B,,2E,4D,2 | 
[V:3] G,,2E,,2B,,4 | 
[V:1] [M:2/1]z2E4F2 | 
[V:2] E,4z2D,2 :
[V:3] E,,2C,,4D,,2 :
[V:1] G3A/B/ [I:setbarnb 156]:
[V:2] E,3F,/G,/ | 
[V:3] C,,2C,2 | 
[V:1] c4 | 
[V:2] _A,4 :
[V:3] F,,4 :
[V:1] [M:3/1](3B4e4d4 [I:setbarnb 157]| 
[V:2] G,4z2G,2 | 
[V:3] [M:3/1](3G,,4C,4B,,4 | 
[V:1] (3:2:4c4B2A2G4 | 
[V:2] [M:2/1](3:2:4E,4D,2C,4E,2- :
[V:3] (3:2:5C,4G,,2A,,2C,3B,, :
[V:1] (3c2B3c [I:setbarnb 158]:
[V:2] (3:2:4E, F,G,3A, | 
[V:3] (3:2:2_A,,2G,,4 | 
[V:1] (3:2:2d2e4 | 
[V:2] (3:2:2B,2G,4 :
[V:3] (3:2:2G,,2C,4 :
[V:1] (3:2:6f3e d cc4=B2 [I:setbarnb 159]| 
[V:2] (3:2:4F,4G,2E,2D,4 | 
[V:3] (3:2:4D,2B,,4C,2G,,4 | 
[V:1] [M:3/1]c4d6cB | 
[V:2] [M:3/1]C,4F,6E,D, | 
[V:3] [M:3/1]A,,4B,,6C,D, | 
[V:1] c2d4c4=B2 | 
[V:2] E,2F,2G,2C,2D,4 | 
[V:3] C,2B,,2G,,2_A,,2G,,4 | 
[V:1] c12 ||  
[V:2] C,12 ||  
[V:3] C,,12 ||  
[V:1]  [K:Bb] [K:clef=treble-8][M:3/1]e8d4 | 
[V:2]  [K:Bb] [K:clef=bass][M:3/1]G,8F,4 | 
[V:3]  [K:Bb] [K:clef=bass][M:3/1]C,8D,2B,,2 | 
[V:1] c6BAB2c2 | 
[V:2] E,6D,C,D,2E,2- | 
[V:3] C,2_A,,4B,,C,G,,2C,2- | 
[V:1] G2B3AGFG2E2 | 
[V:2] E,F,G,2E,3D,E,2C,2 | 
[V:3] C,B,,G,,2z2C,3B,,C,2 | 
[V:1] D2F3GE2D4 | 
[V:2] B,,3C,D,E,C,4=B,,2 | 
[V:3] D,3C,B,,2C,2G,,4 | 
[V:1] C12 | 
[V:2] C,4z2E,4F,2 | 
[V:3] z2E,3D,C,3B,,A,,2 | 
[V:1] z2G4c3BA2 | 
[V:2] D,2C,2E,4F,4 | 
[V:3] B,,2C,6A,,4 | 
[V:1] B8c4 | 
[V:2] G,8A,4 | 
[V:3] z2G,,3A,,B,,2F,,2A,,2 | 
[V:1] d3ef3e/d/e2d2- | 
[V:2] B,3A,/G,/A,2F,2G,3F, | 
[V:3] G,,4F,,4C,2B,,2 | 
[V:1] dcd2G2c4=B2 | 
[V:2] G,2D,2E,4D,4 | 
[V:3] G,,3F,,G,,2C,,2G,,4 | 
[V:1] c12 | 
[V:2] C,2E,3D,C,3B,,A,,2 | 
[V:3] C,,8z2C,2 | 
[V:1] z2F4G3FE2 | 
[V:2] B,,4D,3C,D,2E,2 | 
[V:3] D,4B,,2E,3D,C,2 | 
[V:1] D4E6D2 | 
[V:2] F,4G,8- | 
[V:3] B,,2D,2C,6B,,2 | 
[V:1] D12 | 
[V:2] G,12 | 
[V:3] G,,12 | 
[V:1] z2G4A4B2 | 
[V:2] E,4D,2C,2F,3E,/F,/ | 
[V:3] C,4B,,2C,2D,4 | 
[V:1] c3BAGG4^F2 | 
[V:2] G,2E,2F,2D,3C,/B,,/C,2 | 
[V:3] C,4D,2B,,2A,,4 | 
[V:1] G2FGAGFED4 | 
[V:2] D,4C,4=B,,4 | 
[V:3] G,,2B,,2F,,4G,,2F,,G,, | 
[V:1] C4z4z4 | 
[V:2] z2C,3=B,,/A,,/=B,,2C,4- | 
[V:3] A,,G,,F,,E,,D,,4C,,4 | 
[V:1] G6A4B2 | 
[V:2] C,2E,4F,2D,4 | 
[V:3] z2C,4F,,4G,,2 | 
[V:1] c8d4 | 
[V:2] z2C,3D,E,2F,2G,2- | 
[V:3] A,,3B,,C,4B,,2G,,2 | 
[V:1] e2f3ed4c2 | 
[V:2] G,2F,2D,4E,4 | 
[V:3] C,2D,3C,B,,2C,4 | 
[V:1] d8c4 | 
[V:2] D,4z2F,3E,F,2 | 
[V:3] z2G,,2B,,4A,,4 | 
[V:1] z2G2B4A4 | 
[V:2] G,2E,2D,2G,4^F,2 | 
[V:3] G,,8D,,4 | 
[V:1] G2E2D2G4^F2 | 
[V:2] z2G,2B,4A,4 | 
[V:3] G,,2C,2B,,2G,,2D,4 | 
[V:1] G4B2c2d4 | 
[V:2] G,2G,3F,E,2D,4 | 
[V:3] z2E,3D,C,2=B,,3A,, | 
[V:1] e4d2cBA2B2 | 
[V:2] z2C,2D,E,F,3E,D,2 | 
[V:3] C,4B,,3A,,/G,,/F,,2G,,2 | 
[V:1] c3BAGc4=B2 | 
[V:2] C,2F,3G,E,2D,4 | 
[V:3] A,,2F,,3E,,C,,2G,,4 | 
[V:1] c12 |]  
[V:2] C,12 |]  
[V:3] C,,12 |]  



